static/img/kroki/107874e8d03fcf3063ab7863a09840ef.svg

<?xml version="1.0" encoding="us-ascii" standalone="no"?><svg xmlns="http://www.w3.org/2000/svg" xmlns:xlink="http://www.w3.org/1999/xlink" contentStyleType="text/css" height="152px" preserveAspectRatio="none" style="width:251px;height:152px;" version="1.1" viewBox="0 0 251 152" width="251px" zoomAndPan="magnify"><defs/><g><!--class gcp_billing_account--><g id="elem_gcp_billing_account"><rect codeLine="22" fill="#3D176E" height="39.7891" id="gcp_billing_account" rx="2.5" ry="2.5" style="stroke:#000D19;stroke-width:0.5;" width="204" x="23.5" y="7"/><ellipse cx="38.5" cy="26.8945" fill="#ADD1B2" rx="11" ry="11" style="stroke:#181818;stroke-width:1.0;"/><path d="M41.4688,32.5352 Q40.8906,32.832 40.25,32.9727 Q39.6094,33.1289 38.9063,33.1289 Q36.4063,33.1289 35.0781,31.4883 Q33.7656,29.832 33.7656,26.707 Q33.7656,23.582 35.0781,21.9258 Q36.4063,20.2695 38.9063,20.2695 Q39.6094,20.2695 40.25,20.4258 Q40.9063,20.582 41.4688,20.8789 L41.4688,23.5977 Q40.8438,23.0195 40.25,22.7539 Q39.6563,22.4727 39.0313,22.4727 Q37.6875,22.4727 37,23.5508 Q36.3125,24.6133 36.3125,26.707 Q36.3125,28.8008 37,29.8789 Q37.6875,30.9414 39.0313,30.9414 Q39.6563,30.9414 40.25,30.6758 Q40.8438,30.3945 41.4688,29.8164 L41.4688,32.5352 Z " fill="#000000"/><text fill="#D9B8FF" font-family="Helvetica" font-size="17" lengthAdjust="spacing" textLength="162" x="57.5" y="32.7798">gcp_billing_account</text></g><!--class gcp_project_billing_info--><g id="elem_gcp_project_billing_info"><rect codeLine="24" fill="#3D176E" height="39.7891" id="gcp_project_billing_info" rx="2.5" ry="2.5" style="stroke:#000D19;stroke-width:0.5;" width="237" x="7" y="106.79"/><ellipse cx="22" cy="126.6845" fill="#ADD1B2" rx="11" ry="11" style="stroke:#181818;stroke-width:1.0;"/><path d="M24.9688,132.3252 Q24.3906,132.622 23.75,132.7627 Q23.1094,132.9189 22.4063,132.9189 Q19.9063,132.9189 18.5781,131.2783 Q17.2656,129.622 17.2656,126.497 Q17.2656,123.372 18.5781,121.7158 Q19.9063,120.0595 22.4063,120.0595 Q23.1094,120.0595 23.75,120.2158 Q24.4063,120.372 24.9688,120.6689 L24.9688,123.3877 Q24.3438,122.8095 23.75,122.5439 Q23.1563,122.2627 22.5313,122.2627 Q21.1875,122.2627 20.5,123.3408 Q19.8125,124.4033 19.8125,126.497 Q19.8125,128.5908 20.5,129.6689 Q21.1875,130.7314 22.5313,130.7314 Q23.1563,130.7314 23.75,130.4658 Q24.3438,130.1845 24.9688,129.6064 L24.9688,132.3252 Z " fill="#000000"/><text fill="#D9B8FF" font-family="Helvetica" font-size="17" lengthAdjust="spacing" textLength="195" x="41" y="132.5698">gcp_project_billing_info</text></g><!--link gcp_billing_account to gcp_project_billing_info--><g id="link_gcp_billing_account_gcp_project_billing_info"><path codeLine="26" d="M125.5,47.22 C125.5,62.49 125.5,83.92 125.5,100.53 " fill="none" id="gcp_billing_account-to-gcp_project_billing_info" style="stroke:#1A83AF;stroke-width:2.0;"/><polygon fill="#1A83AF" points="125.5,105.41,129.5,96.41,125.5,100.41,121.5,96.41,125.5,105.41" style="stroke:#1A83AF;stroke-width:2.0;"/></g><!--SRC=[XT11Jy8m50VmEv-YoSuap4MtNKmc2T4BCUBD6DArhwEojSlhGuB6x-u6Iih6uDh_htt_rvMMmA2gQSSgg790Dt9hRMgEl68PejrERMcH1Kfn5SNTS6ODNGLpNW5xXF8JI0lU5QyhBTO6d6CtNlJ0nRf0kp7oy3mXDww9m92dfYLtBYD2dMy8l38opHEbkhBxQ139CBw37hCe0V_8P3AHOTebLqTTtFie5leBMEX_sjmIz6hsHkpLnPQjy4hs5ltF1pi-SocrATYjT_Pow8G6yEHyiUBIRbkjUEdyCOu0mTAkXcblAqWJgUAp-6a8Y_RdM27gPQxBifcuv48qZDZtwCTBQxGV8EYej55sJyvT7Ry5OPP4sUnzV3zu-nS0]--></g></svg>

<svg xmlns="http://www.w3.org/2000/svg" width="251" height="152" preserveAspectRatio="none" style="width:251px;height:152px"><rect width="204" height="39.789" x="23.5" y="7" fill="#3D176E" rx="2.5" ry="2.5" style="stroke:#000d19;stroke-width:.5"/><circle cx="38.5" cy="26.895" r="11" fill="#ADD1B2" style="stroke:#181818;stroke-width:1"/><path d="M41.469 32.535q-.578.297-1.219.438-.64.156-1.344.156-2.5 0-3.828-1.64-1.312-1.657-1.312-4.782t1.312-4.781q1.328-1.656 3.828-1.656.703 0 1.344.156.656.156 1.219.453v2.719q-.625-.578-1.219-.844-.594-.281-1.219-.281-1.343 0-2.031 1.078-.688 1.062-.688 3.156 0 2.094.688 3.172.688 1.062 2.031 1.062.625 0 1.219-.265.594-.281 1.219-.86v2.72Z"/><text x="57.5" y="32.78" fill="#D9B8FF" font-family="Helvetica" font-size="17" textLength="162">gcp_billing_account</text><rect width="237" height="39.789" x="7" y="106.79" fill="#3D176E" rx="2.5" ry="2.5" style="stroke:#000d19;stroke-width:.5"/><circle cx="22" cy="126.684" r="11" fill="#ADD1B2" style="stroke:#181818;stroke-width:1"/><path d="M24.969 132.325q-.578.297-1.219.438-.64.156-1.344.156-2.5 0-3.828-1.64-1.312-1.657-1.312-4.782t1.312-4.781q1.328-1.656 3.828-1.656.703 0 1.344.156.656.156 1.219.453v2.719q-.625-.579-1.219-.844-.594-.281-1.219-.281-1.343 0-2.031 1.078-.688 1.062-.688 3.156 0 2.094.688 3.172.688 1.062 2.031 1.062.625 0 1.219-.265.594-.281 1.219-.86v2.72Z"/><text x="41" y="132.57" fill="#D9B8FF" font-family="Helvetica" font-size="17" textLength="195">gcp_project_billing_info</text><path fill="none" d="M125.5 47.22v53.31" style="stroke:#1a83af;stroke-width:2"/><path fill="#1A83AF" d="m125.5 105.41 4-9-4 4-4-4 4 9z" style="stroke:#1a83af;stroke-width:2"/></svg>
